dhis-2/dhis-support/dhis-support-system/src/main/resources/SVGs/symptom_negative.svg

<?xml version="1.0" encoding="UTF-8" standalone="no"?>
<!-- Created with Inkscape (http://www.inkscape.org/) -->
<svg id="svg8" xmlns:rdf="http://www.w3.org/1999/02/22-rdf-syntax-ns#" xmlns="http://www.w3.org/2000/svg" xmlns:osb="http://www.openswatchbook.org/uri/2009/osb" height="48" width="48" version="1.1" xmlns:cc="http://creativecommons.org/ns#" viewBox="0 0 12.7 12.7" xmlns:dc="http://purl.org/dc/elements/1.1/">
 <title id="title4753">UIO-icon</title>
 <metadata id="metadata5">
  <rdf:RDF>
   <cc:Work rdf:about="">
    <dc:format>image/svg+xml</dc:format>
    <dc:type rdf:resource="http://purl.org/dc/dcmitype/StillImage"/>
    <dc:title>UIO-icon</dc:title>
    <dc:creator>
     <cc:Agent>
      <dc:title>Joaquín Urbano</dc:title>
     </cc:Agent>
    </dc:creator>
    <dc:rights>
     <cc:Agent>
      <dc:title>GPL</dc:title>
     </cc:Agent>
    </dc:rights>
   </cc:Work>
  </rdf:RDF>
 </metadata>
 <g id="layer1" fill="#333" transform="translate(0,-284.3)">
  <path id="rect2965" d="m0 0v48h48v-48zm23.758 4.0039c0.26175-0.0107 0.52725 0.0026685 0.79297 0.041016 2.1866 0.31546 3.8145 2.1875 3.8145 4.3887-2e-8 2.0881-1.479 3.8959-3.543 4.3301-0.7396 0.15536-1.1372 0.15694-1.8555 0-1.491-0.324-2.81-1.533-3.26-2.9906-0.237-0.7662-0.237-1.9056-0.002-2.6679 0.554-1.7924 2.221-3.0267 4.053-3.1016zm3.383 0.2559a20 20 0 0 1 16.859 19.74 20 20 0 0 1 -8.178 16.104l-0.30469-0.41406a19.486 19.486 0 0 0 7.969 -15.69 19.486 19.486 0 0 0 -15.636 -19.102 5.3033 5.3033 0 0 0 -0.709 -0.6382zm-6.4258 0.035156a5.3033 5.3033 0 0 0 -0.701 0.6542 19.486 19.486 0 0 0 -15.5 19.051 19.486 19.486 0 0 0 7.898 15.639l-0.30469 0.41406a20 20 0 0 1 -8.107 -16.053 20 20 0 0 1 16.715 -19.705zm4.2969 0.28906c-1.1192 3.78e-7 -2.0273 0.90617-2.0273 2.0254s0.90812 2.0273 2.0273 2.0273 2.0254-0.90812 2.0254-2.0273c-1e-8 -1.1192-0.90617-2.0254-2.0254-2.0254zm-1.082 9.0859c1.9483-0.001795 3.8944 0.044392 4.25 0.13867 1.1589 0.30835 2.117 1.0728 2.9707 2.3672 0.42018 0.63714 2.9883 5.7126 2.9883 5.9062 0.60677 1.2125 1.9484 3.5254 1.8184 4.6758-0.10152 0.89807-1.184 1.9423-2.5625 1.377-0.22475-0.092109-0.37404-0.36135-0.58008-0.59961-0.12657-0.13836-1.1701-2.0787-2.3184-4.3105l-2.088-4.056-0.025 6.848c-0.26231-0.84847-1.0455-1.4271-1.9336-1.4277-1.1192 0-2.0273 0.90617-2.0273 2.0254s0.90812 2.0273 2.0273 2.0273c0.8803-0.00052611 1.6589-0.56997 1.9277-1.4082l-0.009766 2.9824c0.16232 0.22928 0.12511 0.18346 0.29102 0.41797 5.9272 8.3726 6.6933 9.48 6.7617 9.7852 0.13429 0.5995-0.040979 1.2529-0.4668 1.7539h-0.001953c-0.42282 0.49787-1.2859 0.7637-1.9395 0.59375-0.74269-0.19292-0.6-0.021577-4.373-5.3496l-1.625-2.2969-1.861-2.627-0.701-0.992c0.001883-0.027216 0.003095-0.054781 0.003906-0.082031 0-1.1192-0.90617-2.0254-2.0254-2.0254s-2.0273 0.90617-2.0273 2.0254c0.001177 0.98823 0.71499 1.8317 1.6895 1.9961l-0.75781 1.0703c-0.33811 0.47745-0.50064 0.70238-0.7793 1.0957l-1.2988 1.8359c-3.773 5.328-3.6284 5.1567-4.3711 5.3496-0.65361 0.16995-1.5186-0.095886-1.9414-0.59375h-0.001953c-0.42582-0.50099-0.59913-1.1544-0.46484-1.7539 0.068419-0.30515 0.83449-1.4125 6.7617-9.7852 0.1659-0.2345 0.12675-0.18868 0.28906-0.41797-0.001998-4.4043-0.021116-7.4789-0.044922-9.2227h0.003906c1.1192 0 2.0273-0.90812 2.0273-2.0273s-0.90812-2.0254-2.0273-2.0254-2.0254 0.90617-2.0254 2.0254c0.00081375 0.79027 0.45994 1.5092 1.1777 1.8398-0.39466 0.74897-0.62566 1.1722-1.332 2.543-2.2118 4.2925-2.3679 4.5351-3.0918 4.752-0.18957 0.056931-0.43387 0.10156-0.54297 0.10156-0.7039 0-1.529-0.60945-1.7285-1.2773-0.24085-0.80602-0.33851-0.56478 2.6562-6.666 0.92863-1.892 1.9044-3.7651 2.1699-4.1641 0.81571-1.226 1.7821-1.9856 2.8945-2.2754 0.36568-0.095271 2.3173-0.14666 4.2656-0.14844zm-4.4023 16.545 0.013672 0.009766c0.002405-0.003251 0.003558-0.006524 0.005859-0.009766zm8.8398 0h-0.007813c0.000941 0.001467 0.001043 0.002441 0.001953 0.003906zm-3.0293-11.969c-1.1192 0-2.0273 0.90812-2.0273 2.0273s0.90812 2.0254 2.0273 2.0254c1.1192 1e-8 2.0273-0.90617 2.0273-2.0254s-0.90812-2.0273-2.0273-2.0273zm-8.87 23.725a19.486 19.486 0 0 0 7.5312 1.5156 19.486 19.486 0 0 0 7.4395 -1.4922l0.32422 0.4375a20 20 0 0 1 -7.764 1.568 20 20 0 0 1 -7.832 -1.621z" fill-rule="evenodd" transform="matrix(.26458 0 0 .26458 0 284.3)"/>
 </g>
</svg>

<svg width="48" height="48" viewBox="0 0 48 48" fill="none" xmlns="http://www.w3.org/2000/svg">
<path fill-rule="evenodd" clip-rule="evenodd" d="M0 0V47.9994H47.9994V0H0ZM23.7577 4.00385C24.0194 3.99315 24.2849 4.00652 24.5507 4.04487C26.7372 4.36032 28.3651 6.23234 28.3651 8.43351C28.3651 10.5216 26.8861 12.3294 24.8222 12.7636C24.0826 12.9189 23.685 12.9205 22.9667 12.7636C21.4757 12.4396 20.1567 11.2306 19.7067 9.77299C19.4697 9.0068 19.4697 7.86742 19.7047 7.10513C20.2587 5.31275 21.9257 4.07846 23.7577 4.00357V4.00385ZM27.1407 4.25975C31.8394 5.00696 36.1179 7.40483 39.2078 11.0228C42.2977 14.6407 43.9966 19.2417 43.9995 23.9995C43.9951 27.1371 43.2525 30.2296 41.8319 33.0271C40.4112 35.8246 38.3523 38.2487 35.8215 40.1033L35.5169 39.6892C37.9828 37.8824 39.989 35.5208 41.3734 32.7952C42.7577 30.0695 43.4813 27.0565 43.4858 23.9994C43.4858 19.4998 41.9285 15.1388 39.0784 11.6568C36.2283 8.17493 32.2609 5.78671 27.85 4.89768C27.6333 4.66408 27.396 4.45049 27.141 4.25949L27.1407 4.25975ZM20.7149 4.2949C20.462 4.49135 20.2274 4.71031 20.014 4.94909C15.6366 5.86385 11.7071 8.25637 8.8849 11.7252C6.06266 15.194 4.51941 19.528 4.51414 23.9999C4.51836 27.0422 5.23488 30.0413 6.60635 32.7569C7.97782 35.4726 9.96612 37.8294 12.412 39.6387L12.1074 40.0527C9.5966 38.1957 7.5556 35.7765 6.14782 32.9889C4.74005 30.2013 4.00463 27.1228 4.00046 23.9999C4.00599 19.2692 5.6883 14.6935 8.74853 11.0859C11.8088 7.47824 16.0487 5.07219 20.7152 4.29516L20.7149 4.2949ZM25.0118 4.58396C23.8926 4.58396 22.9845 5.49012 22.9845 6.60933C22.9845 7.72855 23.8926 8.63661 25.0118 8.63661C26.131 8.63661 27.0372 7.7285 27.0372 6.60933C27.0372 5.49015 26.131 4.58396 25.0118 4.58396ZM23.9298 13.6697C25.8781 13.668 27.8242 13.7141 28.1797 13.8084C29.3386 14.1168 30.2967 14.8812 31.1504 16.1756C31.5706 16.8127 34.1387 21.8881 34.1387 22.0817C34.7454 23.2942 36.087 25.6071 35.9571 26.7575C35.8555 27.6555 34.7731 28.6997 33.3946 28.1344C33.1698 28.0423 33.0205 27.7731 32.8145 27.5348C32.6879 27.3965 31.6444 25.4562 30.4961 23.2244L28.4082 19.1684L28.3832 26.0164C28.1209 25.1679 27.3377 24.5893 26.4496 24.5887C25.3304 24.5887 24.4223 25.4948 24.4223 26.614C24.4223 27.7333 25.3304 28.6413 26.4496 28.6413C27.3299 28.6408 28.1085 28.0714 28.3773 27.2331L28.3675 30.2155C28.5298 30.4448 28.4926 30.399 28.6585 30.6335C34.5856 39.006 35.3517 40.1133 35.4201 40.4185C35.5544 41.018 35.3792 41.6714 34.9533 42.1724H34.9514C34.5286 42.6703 33.6655 42.9361 33.0119 42.7662C32.2692 42.5732 32.4119 42.7446 28.639 37.4166L27.014 35.1198L25.153 32.4928L24.452 31.5008C24.4539 31.4736 24.4551 31.446 24.4559 31.4188C24.4559 30.2996 23.5498 29.3934 22.4305 29.3934C21.3113 29.3934 20.4033 30.2996 20.4033 31.4188C20.4044 32.407 21.1183 33.2504 22.0927 33.4148L21.3349 34.4851C20.9968 34.9626 20.8343 35.1875 20.5557 35.5808L19.2569 37.4167C15.4839 42.7446 15.6285 42.5733 14.8858 42.7662C14.2322 42.9362 13.3672 42.6703 12.9445 42.1725H12.9425C12.5167 41.6715 12.3434 41.0181 12.4777 40.4186C12.5461 40.1135 13.3121 39.0061 19.2393 30.6335C19.4052 30.399 19.366 30.4449 19.5283 30.2156C19.5263 25.8113 19.5072 22.7368 19.4834 20.993H19.4873C20.6065 20.993 21.5146 20.0849 21.5146 18.9657C21.5146 17.8465 20.6065 16.9403 19.4873 16.9403C18.3682 16.9403 17.4619 17.8465 17.4619 18.9657C17.4628 19.756 17.9219 20.4749 18.6396 20.8055C18.245 21.5544 18.014 21.9777 17.3077 23.3485C15.0959 27.6409 14.9398 27.8835 14.2159 28.1004C14.0263 28.1573 13.782 28.202 13.6729 28.202C12.969 28.202 12.1439 27.5925 11.9444 26.9247C11.7036 26.1187 11.6059 26.3599 14.6006 20.2588C15.5292 18.3668 16.505 16.4937 16.7705 16.0947C17.5862 14.8687 18.5526 14.1091 19.665 13.8193C20.0306 13.7241 21.9822 13.6727 23.9305 13.6709L23.9298 13.6697ZM19.5276 30.2145L19.5412 30.2243C19.5436 30.2211 19.5448 30.2178 19.5471 30.2145H19.5276ZM28.3672 30.2145H28.3594C28.3604 30.216 28.3605 30.217 28.3614 30.2184L28.3672 30.2145ZM25.338 18.2457C24.2188 18.2457 23.3107 19.1538 23.3107 20.273C23.3107 21.3921 24.2188 22.2983 25.338 22.2983C26.4572 22.2983 27.3653 21.3922 27.3653 20.273C27.3653 19.1537 26.4571 18.2457 25.338 18.2457ZM16.4681 41.9704C18.853 42.9703 21.4131 43.4855 23.9992 43.486C26.5528 43.4809 29.0805 42.9738 31.4386 41.9938L31.7628 42.4313C29.3053 43.4663 26.6655 43.9994 23.9989 43.9993C21.3058 43.9918 18.6419 43.4404 16.167 42.3783L16.4681 41.9704Z" fill="#333333"/>
</svg>
